X:180
T:My Love she but a Lassie yet. Le4.180
Q:1/4=100
T:Caledonian Quadrilles #1. Le4.026
L:1/8
B:L.Leadley MS#4 c1850
Z:vmp.Mike Hicken 2016 www.village-music-project.org.uk
N: * These four notes are shown as quavers in the original but have been changed to semi-quavers to give the correct bar length.
N:** This note is shown as a quaver in the original but has been dotted to match the semi-quaver which follows it.
M:2/4
K:D
!segno!y"^Con Spirita"c2|dDFA|dDDc|dDFA|eEE c|dDFA |Bgfe|d/c/B/A/ B/d/c/e/|dDD "_Fine"||
f/g/|afg>e|fdd f/g/|afg>f|eEE f/g/|a>(fg)e|fde>c|d/c/B/A/ B/d/c/e/|dDD !segno!||
d/e/|ff bb/c'/|d'd' "*"c'/b/^a/b/|g/f/e/d/ cd/e/|f/e/d/c/ B (d/e/)|"**".f>.f .b.b|.ee/f/ .ge/f/|g/f/e/d/ c/B/c/d/|"_D.C."BdB |]

